X:1
T:Never Lose Sight of Jesus
T:Never Lose Sight of Jesus
T:Edwin Othello Excell
T:Johnson Oatman, Jr., 1895
T:Public Domain Courtesy of the Cyber Hymnal™
C:Edwin Othello Excell
Z:Public Domain
Z:Courtesy of the Cyber Hymnal™
%%score ( 1 2 ) 3
L:1/8
Q:1/4=90
M:6/8
K:G
V:1 treble 
V:2 treble 
V:3 bass 
V:1
 [B,D] | [DB]2 [DB] [Ec]>[DB][^C^A] | [DB]2 [DB] [B,G]3 | [DA]>[D^G][DA] D2 [DA] | %4
w: 1.~O|pil- grim bound for the|heav’n- ly land,|Ne- ver lose sight of|
w: 2.~When-|e’er you’re tempt- ed to|go as- tray,|Ne- ver lose sight of|
w: 3.~Tho’|dark the path- way may|seem a- head,|Ne- ver lose sight of|
w: 4.~When|death is knock- ing out-|side the door,|Ne- ver lose sight of|
 [DG]3 [DB]2 [B,D] | [DB]2 [DB] [Ec]>[DB][^C^A] | [DB]2 [DB] [DG]3 | [EA]>[EA][EA] [DG]2 [DF] | %8
w: Je- sus; He’ll|lead you gent- ly with|lov- ing hand,|Ne- ver lose sight of|
w: Je- sus; Press|on- ward, up- ward the|nar- row way,|Ne- ver lose sight of|
w: Je- sus; “I|will be with you” His|word hath said,|Ne- ver lose sight of|
w: Je- sus; Till|safe- ly land- ed on|Ca- naan’s shore|Ne- ver lose sight of|
 [DA]3 [DG]3 ||"^Refrain" [DA]>[D^G][DA] D2 [DA] | [DG]3 [GB]3 | [Gd]>[Gd][Gd] [Fd]2 [DF] | %12
w: Je- sus.||||
w: Je- sus.||||
w: Je- sus.|Ne- ver lose sight of|Je- sus,|Ne- ver lose sight of|
w: Je- sus.||||
 [DG]3 [FA]3 | [GB]2 [GB] [Gc]>[GB][G^A] | [GB]2 [GB] [DG]3 | [EA]>[EA][EA] [DG]2 [DF] | %16
w: ||||
w: ||||
w: Je- sus;|Day and night He will|lead you right,|Ne- ver lose sight of|
w: ||||
 [DA]3 !fermata![DG]2 |] %17
w: |
w: |
w: Je- sus.|
w: |
V:2
 x | x6 | x6 | x3 D2 x | x6 | x6 | x6 | x6 | x6 || x3 D2 x | x6 | x6 | x6 | x6 | x6 | x6 | x5 |] %17
V:3
 [G,,G,] | [G,,G,]2 [G,,G,] [G,,G,]>[G,,G,][G,,G,] | [G,,G,]2 [G,,G,] [G,,G,]3 | %3
 [D,C]>[D,B,][D,C] [D,C]2 [D,C] | [G,,G,B,]3 [G,,G,]2 [G,,G,] | %5
 [G,,G,]2 [G,,G,] [G,,G,]>[G,,G,][G,,G,] | [G,,G,]2 [G,,G,] [B,,G,]3 | %7
 [C,C]>[C,C][C,C] [D,B,]2 [D,A,] | [D,C]3 [G,B,]3 || [D,C]>[D,B,][D,C] [D,C]2 [D,C] | %10
 [G,B,]3 [G,D]3 | [G,B,]>[G,B,][G,B,] [A,C]2 [A,C] | [G,B,]3 [D,D]3 | %13
 [G,D]2 [G,D] [G,E]>[G,D][G,^C] | [G,D]2 [G,D] [G,B,]3 | [C,C]>[C,C][C,C] [D,B,]2 [D,A,] | %16
 [D,C]3 !fermata![G,B,]2 |] %17

